!!!COM:	Du Fay, Guillaume
!!!CDT:	~1397/08/05/-1474/11/27
!!!OTL:	Craindre vous vueil doulce dame de pris
!!!AGN:	Song; Chanson
!!!SCT:	Duf3007.2
!!!SCA:	Duf3007.2
!!!voices:	3
**kern	**kern	**kern	**text	**text	**text
*staff3	*staff2	*staff1	*staff1	*staff1	*staff1
*Ivox	*Ivox	*Ivox	*	*	*
*I"Tenor	*I"Contratenor	*I"Cantus	*	*	*
*I'T	*I'Ct	*I'Cn	*	*	*
*clefGv2	*clefGv2	*clefG2	*	*	*
*k[b-]	*k[b-]	*k[]	*	*	*
*M3/1	*M3/1	*M3/1	*	*	*
*met(O)	*met(O)	*met(O)	*	*	*
=1-	=1-	=1-	=1-	=1-	=1-
!!LO:TX:X=-60:Z=36:t=Survives in a different version as ``Quel fronte signorille''
!!LO:TX:Z=8:t=Rondeau
!LO:TX:Y=22:t=Craindre vous	!LO:TX:Y=22:t=Craindre vous	!	!	!	!
0c	0c	1c	1.4.7. Crain-	3. Ja-	5. De
.	.	1e	-dre	-mais	vous
1B-	1G	1d	vous	ne	a-
=2	=2	=2	=2	=2	=2
1A	1c	2e/	vueil,	suy	-mer
.	.	2f/	.	.	.
0G	0d	1g	doul-	an-	cel
.	.	1g	-ce	-nui-	m'est
=3	=3	=3	=3	=3	=3
1.A	0c	2e/	da-	-eux	un
.	.	2f/	.	.	.
.	.	1e	-me	ne	pa-
2c\	.	.	.	.	.
2Bni\	1G	1d	de	pen-	-ra-
2A/	.	.	.	.	.
=4	=4	=4	=4	=4	=4
0c	0g	1c	pris,	-sis	-dis,
.	.	1r	.	.	.
2c\	1e	1g	A	Ne	V&euml;-
2d\	.	.	.	.	.
=5	=5	=5	=5	=5	=5
1e	2c\	1g	mer,	dou-	-u
.	2B-\	.	.	.	.
1f	1A	1a	.	.	.
1g	1G	2b\	doub-	-leu-	les
.	.	[2g/	.	.	.
=6	=6	=6	=6	=6	=6
2c\	2e\	2g/]	.	.	.
1f	1d	2a/	.	.	.
.	.	2b\	.	.	.
2e\	2g\	2cc\	.	.	.
1d	2.f#i\	2b\	.	.	.
.	.	2a/	.	.	.
.	4e\	.	.	.	.
=7	=7	=7	=7	=7	=7
[0.c	0g	1cc	-ter,	-reux,	biens
.	.	1r	.	.	.
.	1r	2cc\	lou-	quant	qui
.	.	2b\	.	.	.
=8	=8	=8	=8	=8	=8
0.c]	1.e-	1.g	-er	je	sont
.	2d\	2a/	.	.	.
.	2e-i\	2g/	en	voy	en
.	2c\	4f/	.	.	.
.	.	4e/	.	.	.
=9	=9	=9	=9	=9	=9
0B-	0G	2d/	fais,	vo	vous
.	.	2g/	.	.	.
.	.	2f/	.	.	.
.	.	2d/	.	.	.
1c	1A	4f/	en	clair	com-
.	.	4e/	.	.	.
.	.	4d/	.	.	.
.	.	4c/	.	.	.
=10	=10	=10	=10	=10	=10
0d	2r	0B	dis,	vis	-pris,
.	1G	.	.	.	.
.	2G/	.	.	.	.
1c	1A	1c	Tout	Et	Fai-
=11	=11	=11	=11	=11	=11
1B-	1G	2d/	mon	vo	-re
.	.	2e/	.	.	.
0A	1.c	2g/	vi-	main-	le
.	.	1f#i	.	.	.
.	2Bni\	2e/	.	.	.
=12	=12	=12	=12	=12	=12
0.G	0.d	0g	-vant,	-tieng	doy
.	.	1r	.	.	.
=13	=13	=13	=13	=13	=13
0.c	0e	0g	en	en	quoy
.	1e	1a	.	.	.
=14	=14	=14	=14	=14	=14
0.G	1d	0b	quel-	a-	qu'a-
.	2g\	.	.	.	.
.	2f\	.	.	.	.
.	1d	[1g	-que	-lant-	-ve-
=15	=15	=15	=15	=15	=15
0c	0e	1g]	.	.	.
.	.	1cc	lieu	-par-	-nir
1d	1d	2b\	.	.	.
.	.	[2a/	que	-la	en
=16	=16	=16	=16	=16	=16
1.e	1c	2a/]	.	.	.
.	.	2g/	.	.	.
.	1g	1b	soy-	voy-	doy-
2g\	.	.	.	.	.
2f#i\	1d	1a	.	.	.
2e\	.	.	.	.	.
=17	=17	=17	=17	=17	=17
0gN	0GN	0gN	-e,	-e,	-e.&
1r	1r	1r	.	.	.
=18	=18	=18	=18	=18	=18
0a	0F	1cc	2.8. Et	6. A	.
.	.	1cc	vous	vous	.
1g	1G	1b	do-	me	.
=19	=19	=19	=19	=19	=19
1f	2A/	1a	-ne,	rens,	.
.	2Bni\	.	.	.	.
1e	1c	2g/	.	.	.
.	.	2e/	.	.	.
1d	1d	1f	m'a-	ly-	.
=20	=20	=20	=20	=20	=20
1e	2r	1e	-mour,	-es	.
.	2A/	.	.	.	.
1r	2Bni\	1r	.	.	.
.	2c\	.	.	.	.
1a	1d	1f	ma	mieux	.
=21	=21	=21	=21	=21	=21
1g	2r	1e	seu-	que	.
.	2g\	.	.	.	.
1.f	2a\	0d	-le	de	.
.	1a	.	.	.	.
2e\	4g\	.	.	.	.
.	4f\	.	.	.	.
=22	=22	=22	=22	=22	=22
1g	1e	1c	joy-	soy-	.
2e\	1c	2r	.	.	.
2c\	.	2cc\	.	.	.
1d	1G	2b\	.	.	.
.	.	2a/	.	.	.
=23	=23	=23	=23	=23	=23
1c	2g\	1cc	.	.	.
.	4f\	.	.	.	.
.	4e\	.	.	.	.
2d\	2d\	2b\	.	.	.
1e	4c\	2g/	.	.	.
.	4B-\	.	.	.	.
.	1A	1a	.	.	.
2f\	.	.	.	.	.
=24	=24	=24	=24	=24	=24
1g	1G	1b-	.	.	.
0d	0f#i	1.a	.	.	.
.	.	2g/	.	.	.
=25	=25	=25	=25	=25	=25
0.G	0.d	0g	-e,	-e,	.
.	.	1r	.	.	.
=26	=26	=26	=26	=26	=26
0g	0e-	1c	Le	Joi-	.
.	.	1c	cuer	-eu-	.
2g\	[1c	1c	de	-se-	.
2f\	.	.	.	.	.
=27	=27	=27	=27	=27	=27
0d	2c\]	0B	moy	-ment,	.
.	2d\	.	.	.	.
.	1G	.	.	.	.
1e-	1g	1c	tant	en	.
=28	=28	=28	=28	=28	=28
1d	1f	1d	que	bon	.
0c	1g	1e	je	es-	.
.	1e	1a	se-	-poir	.
=29	=29	=29	=29	=29	=29
1B-	1.d	1g	-ray	tou-	.
0A	.	1.f#i	.	.	.
.	1c	.	.	.	.
.	2Bni\	2e/	.	.	.
=30	=30	=30	=30	=30	=30
1.G	1d	1g	vis.	-dis.	.
.	0g	1r	.	.	.
1.c	.	.	.	.	.
.	.	2c/	.	.	.
.	.	[2e/	.	.	.
=31	=31	=31	=31	=31	=31
2B-\	2r	2e/]	.	.	.
2A/	2c\	2f/	.	.	.
1G	2d\	1g	.	.	.
.	2e\	.	.	.	.
2g\	1c	2e/	.	.	.
2e\	.	2c/	.	.	.
=32	=32	=32	=32	=32	=32
2c\	2e\	2g/	.	.	.
2f\	2d\	2a/	.	.	.
2e\	1g	2g/	.	.	.
2c\	.	2cc\	.	.	.
1d	1f#i	2b\	.	.	.
.	.	4cc\	.	.	.
.	.	4a\	.	.	.
=33	=33	=33	=33	=33	=33
0.cl	0.gl	0.ccl	.	.	.
==	==	==	==	==	==
*-	*-	*-	*-	*-	*-
!!!RDF**kern: l=long note in original notation
!!!RDF**kern: i=editorial accidental
!!!RDF**kern: N=signum congruentiae
!!!ENC:	Alejandro Planchart
!!!END:	2013///
!!!EED:	Jesse Rodin
!!!EEV:	2016/04/15/
!!!ONB:	Translated from MusicXML and edited on 2016/04/15/ by Craig Sapp
!!muse2ps: C^@{COM}^i2I150v95,95,150Q16
